X: 42
T: No_136_Whooping_Crane_Dance_Song_(d).krn
N: Derived from No_136_Whooping_Crane_Dance_Song_(d).krn
%%abc-version 2.0
%%abcx-abcm2ps-target-version 5.9.1 (29 Sep 2008)
%%abc-creator hum2abc beta
%%abcx-conversion-date 2019/03/15 08:38:45
%%humdrum-veritas 3546583788
%%humdrum-veritas-data 1203714431
%%linebreak <none>
%%barnumbers 0
L: 1/16
M: 3/4
K: E clef=bass
[K:clef=bass][M:3/4]C2EE E2E2 B,2EE [I:setbarnb 2]||  
[M:2/4]B,B,B,2 B,2(G,F,) | 
G,F,E,E, E,2B,2 ||  
[M:3/4](3G,F,E, (3G,F,E, E,E,E,2 B,,2E,2 ||  
[M:2/4]E,E,E,E, E,2B,2 ||  
[M:3/4](3G,F,E, (3G,F,E, E,E,E,2 E,E,E,2 :|]  



